!!!COM: Bach, Johann Sebastian
!!!CDT: 1685/3//-1750/7/28/
!!!OTL@@DE: Wenn wir in hoechsten Noeten sein
!!!AGN: 4-Part Chorale; Chorale Prelude
!!!SCT: BH 068
!!!SCT: BWV 431
**harm	**root	**kern	**kern	**kern	**kern
!	!	!bass	!tenor	!alto	!soprno
*	*Iorgan	*Iorgan	*Iorgan	*Iorgan	*Iorgan
*	*	*clefF4	*clefF4	*clefG2	*clefG2
*M4/4	*M4/4	*M4/4	*M4/4	*M4/4	*M4/4
*met(c)	*met(c)	*met(c)	*met(c)	*met(c)	*met(c)
*MM60	*MM60	*MM60	*MM60	*MM60	*MM60
*k[b-e-a-]	*k[b-e-a-]	*k[b-e-a-]	*k[b-e-a-]	*k[b-e-a-]	*k[b-e-a-]
*E-:	*E-:	*E-:	*E-:	*E-:	*E-:
I	4FF	8E-	8G	[4B-	4e-
.	.	8D	8F	.	.
=1	=1	=1	=1	=1	=1
viiob/V	4BB	4C	4E-	8B-]	4e-
.	.	.	.	8A	.
Vb	8CC	8D	8B-	[4B-	4f
V7	8CC	8BB-	8A-y	.	.
I	4FF	4E-	8G	8B-]	4g
.	.	.	8A-	8c	.
V	4CC	4BB-	4B-	4d	8f
.	.	.	.	.	8g
=2	=2	=2	=2	=2	=2
IVb	8BB-	8C	8E-	8e-	4a-
V7b	8CC	8D	8B-	[8f	.
I	4FF	4E-	4B-	8f]	4g
.	.	.	.	[8e-	.
ii7b	8GG	4AA-	8c	8e-]	4.f
iib	8GG	.	8A-	16d	.
.	.	.	.	16c	.
V	4CC	4BB-	8F	4d	.
.	.	.	16B-	.	8f
.	.	.	16A-	.	.
=3	=3	=3	=3	=3	=3
I;	2FF;	2EE-;	2G;	2B-;	2e-;
r	4r	4r	4r	4r	4r
I	4FF	8E-	4B-	[4e-	4g
.	.	8D-	.	.	.
=4	=4	=4	=4	=4	=4
IVb	8BB-	8C	8c	8e-]	4a-
V7b	8CC	8D	8B-	[8f	.
I	4FF	4E-	4B-	8f]	4g
.	.	.	.	[8e-	.
V7b/V	8GG	8AA	8c	8e-]	4f
V	8CC	8BB-	4B-	8d	.
viio/V	4BB	4C	.	4c	4e-
.	.	.	8A	.	.
!!linebreak: 2
=5	=5	=5	=5	=5	=5
V	4CC	8BB-	4B-	4F	4d
.	.	8AA-y	.	.	.
Ib	4FF	8GG	4E-	4B-	4e-
.	.	8EE-	.	.	.
V;	4CC;	4BB-;	4D;	4B-;	4f;
iii	4AA	4GG	4G	8d	4b-
.	.	.	.	8e	.
=6	=6	=6	=6	=6	=6
ii	8GG	4FF	8c	8f	4a-
viioD7/vi	8CC#	.	8B	8d	.
vi	4DD	8C	4c	8e-	4g
.	.	8BB-	.	8d	.
Vb/V	4GG	4AA	4F	[4c	8f
.	.	.	.	.	8e-
V	4CC	4BB-	4F	8c]	4d
.	.	.	.	[8B-	.
=7	=7	=7	=7	=7	=7
I	4FF	4EE-	4G	8B-]	4e-
.	.	.	.	16c	.
.	.	.	.	16B-	.
V/V	4GG	4FF	8F	4A	4c
.	.	.	8E-	.	.
V;	4CC;	4BB-;	4D;	4F;	4B-;
I	4FF	4EE-	4B-	8e-	4g
.	.	.	.	8d-	.
=8	=8	=8	=8	=8	=8
ii	4GG	4FF	4A-	8c	4a-
.	.	.	.	8d	.
Ib	4FF	8GG	[4B-	[4e-	4g
.	.	8AA-	.	.	.
V	4CC	4BB-	8.B-]	8e-]	4f
.	.	.	.	[8d	.
.	.	.	16A-	.	.
vi	8DD	4C	8G	8d]	4e-
IVb	8BB-	.	8A-	16c	.
.	.	.	.	16d	.
=9	=9	=9	=9	=9	=9
Ib	4FF	8GG	4B-	4.e-	4g
.	.	8AA-	.	.	.
V	4CC	4BB-	8.B-	.	4f
.	.	.	.	8d	.
.	.	.	16A-	.	.
I;	4FF;	4EE-;	4G;	4B-;	4e-;
==	==	==	==	==	==
*-	*-	*-	*-	*-	*-
!!chor2scor: -l 2 -s 0.6 -o %b.pmx
!!!YEC: Copyright 1994, David Huron
!!!YEC: Changes/Additions Copyright 2001 by Craig Stuart Sapp
!!!license: GNU General Public License (http://www.gnu.org/copyleft/gpl.html)
!!!SMA: 371 Bach Chorales, edited by Ludwig Erk, C.F. Peters
!!!PDT: 1850, 1865
!!!ONB: Harmony and Root analysis done manually
